X: 204
T:Mrs MacDowal Grant of Arndilly's Strathspey
B:William Marshall's Scottish Airs, Melodies, Strathspeys, Reels &c (1822)
C:William Marshall
L:1/8
M:C
O:Scotland
R:Slow Strathspey
Z:Clark Bernst + Richard Robinson
%%Page:24 - 1
F:http://richardrobinson.tunebook.org.uk/tune/4047
%%TBL:{"version":1,"type":"tune","id":"4047"}
K:Eb
%%staves {1 2}
V:1
"^Slowly"
[G,~E]>B (A/G/)(F/E/) CF-!trill!F!wedge!G | [G,~E]>B (A/G/)F/E/ (E/F/)G/A/ (B/c/)d/e/ | \
~g>b (a/g/)f/e/ (d/e/)f/g/ (fF) | GE/G/ BG/B/ eBeg :|
{d}(e>f)!trill!(g>b) (a/g/)f/e/ {g}!trill!f2 | eEGB (c/d/)(e/B/) GE | \
[G,A]>c (c/B/)A/F/ (A/G/)F/E/ !trill!F>G | (!trill!E>B,)(C>B,) EB,EG |
{d}(e>f)(!trill!g>b) (a/g/)f/e/ {g}!trill!f2 | eEGB (~c/d/)(e/B/) GE | \
(A/G/)A/B/ (c/A/)G/F/ (B/G/)F/E/ {E}!trill!F2 | EB,/E/ GE/G/ BGeg |]
V:2 middle=d clef=bass
L:1/4
eEAB | Eeee | EeBB | eeEE :| \
ee'eb | eeae | AaeB | EeEe | ee'eb | eeae/g/ | aA/a/ g/e/ B | eEee |]

